src/asset/img/icon/button/search.svg

<svg height="18" width="18" xmlns:xlink="http://www.w3.org/1999/xlink" xmlns="http://www.w3.org/2000/svg"><defs><path d="m10 16.95-.5-.5 1.15 1.15-.65-.65M22.3 4.6q-1.9-1.9-4.65-1.9-2.75 0-4.65 1.9-1.95 1.95-1.95 4.7T13 13.95q1.9 1.95 4.65 1.95 2.75 0 4.65-1.95 1.95-1.9 1.95-4.65 0-2.75-1.95-4.7m3-2.95q3.2 3.15 3.2 7.65t-3.2 7.65q-3.15 3.2-7.65 3.2-2.4 0-4.4-.9l-4.15 4.1-.65.9Q7.4 25.3 5.95 25.3q-1.5 0-2.55-1.05-1.1-1.05-1.1-2.55 0-1.5 1.1-2.55h.05l-.05-.05 4.7-4.7q-1.3-2.3-1.3-5.1 0-4.5 3.2-7.65 3.15-3.2 7.65-3.2 4.45 0 7.65 3.2" fill="url(#a)" fill-rule="evenodd" transform="translate(-2.3 1.55)" id="c"/><path d="M25 0q0 10.3-7.3 17.65Q10.35 25 0 25t-17.65-7.35Q-25 10.3-25 0q0-10.35 7.35-17.7Q-10.35-25.05 0-25q10.35-.05 17.7 7.3Q25-10.35 25 0" fill="#fff" fill-rule="evenodd" transform="translate(25 25)" id="d"/><path d="M0 0q3.6.15 6.15 2.75 2.5 2.6 2.5 6.25t-2.5 6.25Q3.6 17.85 0 17.95V0" fill="url(#b)" fill-rule="evenodd" id="e"/><use height="26.85" width="26.2" xlink:href="#c" id="h"/><use height="50" width="50" xlink:href="#d" id="f" x="0" y="0"/><use height="17.95" width="8.65" xlink:href="#e" id="g" x="0" y="0"/><linearGradient gradientTransform="matrix(.0062 -.0062 .0045 .0045 11.45 14.85)" gradientUnits="userSpaceOnUse" id="a" spreadMethod="pad" x1="-819.2" x2="819.2"><stop offset=".008" stop-color="#800026"/><stop offset="1" stop-color="#ee92c0"/></linearGradient><linearGradient gradientTransform="matrix(.0053 0 0 .011 4.3 8.95)" gradientUnits="userSpaceOnUse" id="b" spreadMethod="pad" x1="-819.2" x2="819.2"><stop offset="0" stop-color="#ffa2d0"/><stop offset="1" stop-color="#f96" stop-opacity="0"/></linearGradient></defs><g transform="translate(-1.45 1.65)"><use height="50" transform="matrix(.36 0 0 .36 1.45 -1.65)" width="50" xlink:href="#f"/><use height="17.95" transform="translate(10.8 -1.65)" width="8.65" xlink:href="#g"/></g><use height="26.85" transform="translate(2.66 2.502) scale(.48402)" width="26.2" xlink:href="#h"/></svg>

<?xml version="1.0" encoding="UTF-8" standalone="no"?>
<svg
   height="18.000122"
   width="18"
   version="1.1"
   id="svg951"
   sodipodi:docname="search.svg"
   inkscape:version="1.1.2 (0a00cf5339, 2022-02-04, custom)"
   xmlns:inkscape="http://www.inkscape.org/namespaces/inkscape"
   xmlns:sodipodi="http://sodipodi.sourceforge.net/DTD/sodipodi-0.dtd"
   xmlns:xlink="http://www.w3.org/1999/xlink"
   xmlns="http://www.w3.org/2000/svg"
   xmlns:svg="http://www.w3.org/2000/svg">
  <sodipodi:namedview
     id="namedview953"
     pagecolor="#505050"
     bordercolor="#eeeeee"
     borderopacity="1"
     inkscape:pageshadow="0"
     inkscape:pageopacity="0"
     inkscape:pagecheckerboard="0"
     showgrid="false"
     inkscape:current-layer="g1107" />
  <defs
     id="defs949">
    <linearGradient
       gradientTransform="matrix(0.0064,0,0,0.0123,5.2,-0.05)"
       gradientUnits="userSpaceOnUse"
       id="b"
       spreadMethod="pad"
       x1="-819.20001"
       x2="819.20001">
      <stop
         offset="0"
         stop-color="#ffa2d0"
         id="stop925" />
      <stop
         offset="1"
         stop-color="#fff"
         id="stop927" />
    </linearGradient>
    <linearGradient
       gradientTransform="matrix(-0.0014,-0.0051,0.0024,-6e-4,25.4,-9.9)"
       gradientUnits="userSpaceOnUse"
       id="c"
       spreadMethod="pad"
       x1="-819.20001"
       x2="819.20001">
      <stop
         offset="0"
         stop-color="#fe78a0"
         id="stop930" />
      <stop
         offset="1"
         stop-color="#ffd5e1"
         id="stop932" />
    </linearGradient>
    <linearGradient
       gradientTransform="matrix(-0.0011,-0.0043,0.0024,-6e-4,25.65,-7.4)"
       gradientUnits="userSpaceOnUse"
       id="d"
       spreadMethod="pad"
       x1="-819.20001"
       x2="819.20001">
      <stop
         offset="0"
         stop-color="#4d0017"
         id="stop935" />
      <stop
         offset="1"
         stop-color="#cc003e"
         id="stop937" />
    </linearGradient>
    <g
       id="a"
       fill-rule="evenodd">
      <path
         d="M -10.5,-6.5 0,-10.1 V 10.05 Q -3.65,7 -5.9,3.85 -8.4,0.25 -10.5,-6.5"
         fill="#ffffff"
         transform="translate(10.5,10.1)"
         id="path940" />
      <path
         d="m 0,-10.1 10.45,3.6 Q 8.45,0.25 5.85,3.85 3.9,6.8 0,10.05 V -10.1"
         fill="url(#b)"
         transform="translate(10.5,10.1)"
         id="path942" />
    </g>
    <g
       id="shape0"
       transform="translate(3.5,3.5)">
      <path
         d="m 49.4,8.9 q 0.35,0.7 0.15,1.5 -4.65,15.25 -10.3,23.2 -4.9,6.9 -13.15,13.9 -0.55,0.45 -1.3,0.45 -0.75,0 -1.3,-0.45 Q 15.25,40.5 10.4,33.6 4.7,25.65 0.1,10.4 -0.15,9.6 0.25,8.9 0.6,8.15 1.35,7.9 l 22.8,-7.8 q 0.65,-0.2 1.3,0 l 22.8,7.8 q 0.75,0.25 1.15,1"
         fill="#000000"
         fill-rule="evenodd"
         stroke="none"
         id="path1473" />
      <path
         d="M 49.4,8.9 Q 49,8.15 48.25,7.9 L 25.45,0.1 q -0.65,-0.2 -1.3,0 L 1.35,7.9 q -0.75,0.25 -1.1,1 -0.4,0.7 -0.15,1.5 4.6,15.25 10.3,23.2 4.85,6.9 13.1,13.9 0.55,0.45 1.3,0.45 0.75,0 1.3,-0.45 8.25,-7 13.15,-13.9 5.65,-7.95 10.3,-23.2 0.2,-0.8 -0.15,-1.5 z"
         fill="none"
         stroke="#5e4100"
         stroke-linecap="round"
         stroke-linejoin="round"
         stroke-width="7"
         id="path1475" />
      <path
         d="M 2,9.8 24.8,2 47.6,9.8 q -4.5,14.9 -10,22.65 -4.75,6.7 -12.8,13.5 Q 16.75,39.15 12,32.45 6.5,24.7 2,9.8"
         fill="#000000"
         fill-rule="evenodd"
         stroke="none"
         id="path1477" />
      <path
         d="M 2,9.8 24.8,2"
         fill="none"
         stroke="#ffffff"
         stroke-linecap="round"
         stroke-linejoin="round"
         stroke-width="4"
         id="path1479" />
      <path
         d="m 47.6,9.8 q -4.5,14.9 -10,22.65 -4.75,6.7 -12.8,13.5"
         fill="none"
         stroke="#cca300"
         stroke-linecap="round"
         stroke-linejoin="round"
         stroke-width="4"
         id="path1481" />
      <path
         d="M 24.8,2 47.6,9.8 M 24.8,45.95 Q 16.75,39.15 12,32.45 6.5,24.7 2,9.8 Z"
         fill="none"
         stroke="#e6b700"
         stroke-linecap="round"
         stroke-linejoin="round"
         stroke-width="4"
         id="path1483" />
      <path
         d="M 24.8,2 V 45.95 Q 16.75,39.15 12,32.45 6.5,24.7 2,9.8 L 24.8,2"
         fill="url(#gradient0)"
         fill-rule="evenodd"
         stroke="none"
         id="path1485" />
      <path
         d="m 24.8,2 22.8,7.8 q -4.5,14.9 -10,22.65 -4.75,6.7 -12.8,13.5 V 2"
         fill="url(#gradient1)"
         fill-rule="evenodd"
         stroke="none"
         id="path1487" />
    </g>
    <linearGradient
       gradientTransform="matrix(0.0139,0,0,0.0268,13.4,23.95)"
       gradientUnits="userSpaceOnUse"
       id="gradient0"
       spreadMethod="pad"
       x1="-819.20001"
       x2="819.20001">
      <stop
         offset="0.0"
         stop-color="#ffb300"
         id="stop1490" />
      <stop
         offset="1.0"
         stop-color="#ffffff"
         id="stop1492" />
    </linearGradient>
    <linearGradient
       gradientTransform="matrix(0.0165,0,0,1,33.35,-113.15)"
       gradientUnits="userSpaceOnUse"
       id="gradient1"
       spreadMethod="pad"
       x1="-819.20001"
       x2="819.20001">
      <stop
         offset="0.0"
         stop-color="#e6b700"
         id="stop1495" />
      <stop
         offset="1.0"
         stop-color="#ffefcc"
         id="stop1497" />
    </linearGradient>
    <g
       id="sprite0"
       transform="translate(-2.3,1.55)">
      <use
         height="26.85"
         transform="translate(2.3,-1.55)"
         width="26.200001"
         xlink:href="#shape1"
         id="use1500"
         x="0"
         y="0" />
    </g>
    <g
       id="shape1"
       transform="translate(-2.3,1.55)">
      <path
         d="M 10,16.95 9.5,16.45 10.65,17.6 10,16.95 M 22.3,4.6 Q 20.4,2.7 17.65,2.7 14.9,2.7 13,4.6 q -1.95,1.95 -1.95,4.7 0,2.75 1.95,4.65 1.9,1.95 4.65,1.95 2.75,0 4.65,-1.95 1.95,-1.9 1.95,-4.65 0,-2.75 -1.95,-4.7 m 3,-2.95 q 3.2,3.15 3.2,7.65 0,4.5 -3.2,7.65 -3.15,3.2 -7.65,3.2 -2.4,0 -4.4,-0.9 l -4.15,4.1 -0.65,0.9 Q 7.4,25.3 5.95,25.3 4.45,25.3 3.4,24.25 2.3,23.2 2.3,21.7 2.3,20.2 3.4,19.15 H 3.45 L 3.4,19.1 8.1,14.4 Q 6.8,12.1 6.8,9.3 6.8,4.8 10,1.65 q 3.15,-3.2 7.65,-3.2 4.45,0 7.65,3.2"
         fill="url(#gradient2)"
         fill-rule="evenodd"
         stroke="none"
         id="path1503" />
    </g>
    <linearGradient
       gradientTransform="matrix(0.0062,-0.0062,0.0045,0.0045,11.45,14.85)"
       gradientUnits="userSpaceOnUse"
       id="gradient2"
       spreadMethod="pad"
       x1="-819.20001"
       x2="819.20001">
      <stop
         offset="0.00784313725490196"
         stop-color="#800026"
         id="stop1506" />
      <stop
         offset="1.0"
         stop-color="#ee92c0"
         id="stop1508" />
    </linearGradient>
    <use
       height="50"
       width="50"
       xlink:href="#e"
       id="a-2"
       x="0"
       y="0" />
    <use
       height="17.950001"
       width="8.6499996"
       xlink:href="#f"
       id="b-6"
       x="0"
       y="0" />
    <use
       height="16.450001"
       width="16.6"
       xlink:href="#g"
       id="c-1"
       x="0"
       y="0" />
    <use
       height="16.450001"
       width="16.6"
       xlink:href="#h"
       id="d-0"
       x="0"
       y="0" />
    <path
       d="M 25,0 Q 25,10.3 17.7,17.65 10.35,25 0,25 -10.35,25 -17.65,17.65 -25,10.3 -25,0 q 0,-10.35 7.35,-17.7 7.3,-7.35 17.65,-7.3 10.35,-0.05 17.7,7.3 Q 25,-10.35 25,0"
       fill="#ffffff"
       fill-rule="evenodd"
       transform="translate(25,25)"
       id="e" />
    <path
       d="m 0,0 q 3.6,0.15 6.15,2.75 2.5,2.6 2.5,6.25 0,3.65 -2.5,6.25 Q 3.6,17.85 0,17.95 V 0"
       fill="url(#i)"
       fill-rule="evenodd"
       id="f" />
    <path
       d="M 11.3,9.35 11.5,9.9 15.8,8.1 12,11.65 11.1,10.9 8.5,13.65 5.65,10.9 4.75,11.65 0.95,8.1 5.2,9.9 5.5,9.15 3.2,5.8 0,0.05 6.5,6.55 8.3,1.85 10.15,6.4 16.6,0 q -3.15,6.45 -5.3,9.35 m -4.05,7.1 -3,-1.75 v -1 l 2.95,0.8 0.05,1.95 m 2.75,0 0.1,-1.95 2.9,-0.8 v 1 l -3,1.75"
       fill="url(#j)"
       fill-rule="evenodd"
       id="h" />
    <linearGradient
       gradientTransform="matrix(0.0053,0,0,0.011,4.3,8.95)"
       gradientUnits="userSpaceOnUse"
       id="i"
       spreadMethod="pad"
       x1="-819.20001"
       x2="819.20001">
      <stop
         offset="0"
         stop-color="#ffa2d0"
         id="stop1116" />
      <stop
         offset="1"
         stop-color="#f96"
         stop-opacity="0"
         id="stop1118" />
    </linearGradient>
    <linearGradient
       gradientTransform="matrix(0.0049,0,0,0.0083,8.3,6.8)"
       gradientUnits="userSpaceOnUse"
       id="j"
       spreadMethod="pad"
       x1="-819.20001"
       x2="819.20001">
      <stop
         offset="0"
         stop-color="#ffb907"
         id="stop1121" />
      <stop
         offset="1"
         stop-color="#ffb907"
         stop-opacity="0"
         id="stop1123" />
    </linearGradient>
    <g
       id="g"
       fill="#ff3300"
       fill-rule="evenodd">
      <path
         d="M 0,0.05 8.25,8.25 16.6,0 Q 11,11.55 8.4,11.55 6.75,11.55 3.2,5.8 L 0,0.05"
         id="path1126" />
      <path
         d="M 12,11.65 10.45,10.35 15.8,8.1 12,11.65 m -7.25,0 -3.8,-3.55 5.35,2.25 -1.55,1.3"
         id="path1128" />
      <path
         d="M 8.3,1.85 11.65,10.3 8.5,13.65 5.05,10.3 8.3,1.85 M 10.1,14.5 13,13.7 v 1 l -3,1.75 0.1,-1.95 m -2.9,0 0.05,1.95 -3,-1.75 v -1 l 2.95,0.8"
         id="path1130" />
    </g>
    <g
       id="shape0-6"
       transform="translate(3.5,3.5)">
      <path
         d="m 49.4,8.9 q 0.35,0.7 0.15,1.5 -4.65,15.25 -10.3,23.2 -4.9,6.9 -13.15,13.9 -0.55,0.45 -1.3,0.45 -0.75,0 -1.3,-0.45 Q 15.25,40.5 10.4,33.6 4.7,25.65 0.1,10.4 -0.15,9.6 0.25,8.9 0.6,8.15 1.35,7.9 l 22.8,-7.8 q 0.65,-0.2 1.3,0 l 22.8,7.8 q 0.75,0.25 1.15,1"
         fill="#000000"
         fill-rule="evenodd"
         stroke="none"
         id="path2214" />
      <path
         d="M 49.4,8.9 Q 49,8.15 48.25,7.9 L 25.45,0.1 q -0.65,-0.2 -1.3,0 L 1.35,7.9 q -0.75,0.25 -1.1,1 -0.4,0.7 -0.15,1.5 4.6,15.25 10.3,23.2 4.85,6.9 13.1,13.9 0.55,0.45 1.3,0.45 0.75,0 1.3,-0.45 8.25,-7 13.15,-13.9 5.65,-7.95 10.3,-23.2 0.2,-0.8 -0.15,-1.5 z"
         fill="none"
         stroke="#5e4100"
         stroke-linecap="round"
         stroke-linejoin="round"
         stroke-width="7"
         id="path2216" />
      <path
         d="M 2,9.8 24.8,2 47.6,9.8 q -4.5,14.9 -10,22.65 -4.75,6.7 -12.8,13.5 Q 16.75,39.15 12,32.45 6.5,24.7 2,9.8"
         fill="#000000"
         fill-rule="evenodd"
         stroke="none"
         id="path2218" />
      <path
         d="M 2,9.8 24.8,2"
         fill="none"
         stroke="#ffffff"
         stroke-linecap="round"
         stroke-linejoin="round"
         stroke-width="4"
         id="path2220" />
      <path
         d="m 47.6,9.8 q -4.5,14.9 -10,22.65 -4.75,6.7 -12.8,13.5"
         fill="none"
         stroke="#cca300"
         stroke-linecap="round"
         stroke-linejoin="round"
         stroke-width="4"
         id="path2222" />
      <path
         d="M 24.8,2 47.6,9.8 M 24.8,45.95 Q 16.75,39.15 12,32.45 6.5,24.7 2,9.8 Z"
         fill="none"
         stroke="#e6b700"
         stroke-linecap="round"
         stroke-linejoin="round"
         stroke-width="4"
         id="path2224" />
      <path
         d="M 24.8,2 V 45.95 Q 16.75,39.15 12,32.45 6.5,24.7 2,9.8 L 24.8,2"
         fill="url(#gradient0)"
         fill-rule="evenodd"
         stroke="none"
         id="path2226" />
      <path
         d="m 24.8,2 22.8,7.8 q -4.5,14.9 -10,22.65 -4.75,6.7 -12.8,13.5 V 2"
         fill="url(#gradient1)"
         fill-rule="evenodd"
         stroke="none"
         id="path2228" />
    </g>
    <g
       id="sprite0-1"
       transform="translate(-2.3,1.55)">
      <use
         height="26.85"
         transform="translate(2.3,-1.55)"
         width="26.200001"
         xlink:href="#shape1"
         id="use2241"
         x="0"
         y="0" />
    </g>
    <g
       id="g13102">
      <path
         d="M 10,16.95 9.5,16.45 10.65,17.6 10,16.95 M 22.3,4.6 Q 20.4,2.7 17.65,2.7 14.9,2.7 13,4.6 q -1.95,1.95 -1.95,4.7 0,2.75 1.95,4.65 1.9,1.95 4.65,1.95 2.75,0 4.65,-1.95 1.95,-1.9 1.95,-4.65 0,-2.75 -1.95,-4.7 m 3,-2.95 q 3.2,3.15 3.2,7.65 0,4.5 -3.2,7.65 -3.15,3.2 -7.65,3.2 -2.4,0 -4.4,-0.9 l -4.15,4.1 -0.65,0.9 Q 7.4,25.3 5.95,25.3 4.45,25.3 3.4,24.25 2.3,23.2 2.3,21.7 2.3,20.2 3.4,19.15 H 3.45 L 3.4,19.1 8.1,14.4 Q 6.8,12.1 6.8,9.3 6.8,4.8 10,1.65 q 3.15,-3.2 7.65,-3.2 4.45,0 7.65,3.2"
         fill="url(#gradient2)"
         fill-rule="evenodd"
         stroke="none"
         id="path2244" />
    </g>
    <g
       transform="translate(21.85,27.25)"
       id="shape0-8">
      <path
         d="M 16.45,-15.7 16.4,-15.45 13,-8.4 4.6,-10.7 q -5.85,0 -9.55,3.45 -4.05,3.1 -3.95,8.1 -0.05,4.3 3.7,7.75 4,3.1 9.45,3.1 l 9.1,-2.3 2.75,7.3 q -3.15,1.35 -8.15,1.55 v 3.6 h -3.7 v -3.5 L 0.2,18.1 v 3.75 h -3.8 v -4.3 q -13.15,-3 -13.15,-16.7 0,-5.95 3.45,-10.2 l 2.95,-2.85 q 3,-2.35 6.75,-3.65 v -6 h 3.8 v 5.05 l 4.05,-0.4 v -4.65 h 3.7 v 4.65 q 5.1,0.25 8.5,1.5 M 7.95,8.2 H 4.25 V -8.2 h 3.7 V 8.2 M -3.6,5.5 V -4.85 L 0.2,-8.2 V 8.2 L -3.6,5.5"
         fill="url(#gradient0)"
         fill-rule="evenodd"
         stroke="none"
         id="path11978"
         style="fill:url(#gradient0-9)" />
    </g>
    <linearGradient
       gradientTransform="matrix(0.0135,0.0132,-0.007,0.0071,6.35,0.2)"
       gradientUnits="userSpaceOnUse"
       id="gradient0-9"
       spreadMethod="pad"
       x1="-819.20001"
       x2="819.20001">
      <stop
         offset="0.0"
         stop-color="#e77607"
         id="stop11985" />
      <stop
         offset="1.0"
         stop-color="#e77607"
         id="stop11987" />
    </linearGradient>
    <linearGradient
       gradientTransform="matrix(0.0064,0,0,0.0123,5.2,-0.05)"
       gradientUnits="userSpaceOnUse"
       id="b-8"
       spreadMethod="pad"
       x1="-819.20001"
       x2="819.20001">
      <stop
         offset="0"
         stop-color="#ffa2d0"
         id="stop12837" />
      <stop
         offset="1"
         stop-color="#fff"
         id="stop12839" />
    </linearGradient>
    <linearGradient
       gradientTransform="matrix(-0.0014,-0.0051,0.0024,-6e-4,25.4,-9.9)"
       gradientUnits="userSpaceOnUse"
       id="c-0"
       spreadMethod="pad"
       x1="-819.20001"
       x2="819.20001">
      <stop
         offset="0"
         stop-color="#fe78a0"
         id="stop12842" />
      <stop
         offset="1"
         stop-color="#ffd5e1"
         id="stop12844" />
    </linearGradient>
    <linearGradient
       gradientTransform="matrix(-0.0011,-0.0043,0.0024,-6e-4,25.65,-7.4)"
       gradientUnits="userSpaceOnUse"
       id="d-2"
       spreadMethod="pad"
       x1="-819.20001"
       x2="819.20001">
      <stop
         offset="0"
         stop-color="#e77607"
         id="stop12847" />
      <stop
         offset="1"
         stop-color="#e77607"
         id="stop12849" />
    </linearGradient>
    <g
       id="a-1"
       fill-rule="evenodd">
      <path
         d="m 1.25,-6 0.65,-0.1 0.4,0.5 0.3,2.7 2.25,1.4 q 0.35,0.2 0.3,0.6 v 0.2 l -0.35,0.35 -2.45,1.1 -0.7,2.7 -0.4,0.4 Q 0.85,3.95 0.6,3.65 l -1.8,-2 -2.7,0.2 q -0.4,0 -0.6,-0.3 L -4.55,1 l 1.35,-2.45 -1,-2.5 V -4.4 l 0.1,-0.2 q 0.25,-0.3 0.65,-0.2 l 2.6,0.55 2.1,-1.75"
         fill="url(#d)"
         transform="translate(10.5,10.1)"
         id="path12858"
         style="fill:url(#d-2)" />
    </g>
    <linearGradient
       gradientTransform="matrix(-0.0011,-0.0043,0.0024,-6e-4,25.65,-7.4)"
       gradientUnits="userSpaceOnUse"
       id="d-2-0"
       spreadMethod="pad"
       x1="-819.20001"
       x2="819.20001">
      <stop
         offset="0"
         stop-color="#e77607"
         id="stop12847-5" />
      <stop
         offset="1"
         stop-color="#e77607"
         id="stop12849-1" />
    </linearGradient>
    <linearGradient
       gradientTransform="matrix(-0.0011,-0.0043,0.0024,-6e-4,25.65,-7.4)"
       gradientUnits="userSpaceOnUse"
       id="linearGradient12975"
       spreadMethod="pad"
       x1="-819.20001"
       x2="819.20001">
      <stop
         offset="0"
         stop-color="#e77607"
         id="stop12971" />
      <stop
         offset="1"
         stop-color="#e77607"
         id="stop12973" />
    </linearGradient>
    <linearGradient
       gradientTransform="matrix(-0.0011,-0.0043,0.0024,-6e-4,25.65,-7.4)"
       gradientUnits="userSpaceOnUse"
       id="d-2-08"
       spreadMethod="pad"
       x1="-819.20001"
       x2="819.20001">
      <stop
         offset="0"
         stop-color="#e77607"
         id="stop12847-50" />
      <stop
         offset="1"
         stop-color="#e77607"
         id="stop12849-6" />
    </linearGradient>
    <linearGradient
       gradientTransform="matrix(-0.0011,-0.0043,0.0024,-6e-4,25.65,-7.4)"
       gradientUnits="userSpaceOnUse"
       id="linearGradient12975-4"
       spreadMethod="pad"
       x1="-819.20001"
       x2="819.20001">
      <stop
         offset="0"
         stop-color="#e77607"
         id="stop12971-6" />
      <stop
         offset="1"
         stop-color="#e77607"
         id="stop12973-2" />
    </linearGradient>
  </defs>
  <g
     transform="translate(-1.45,1.6501216)"
     id="g1107">
    <use
       height="50"
       transform="matrix(0.36,0,0,0.36,1.45,-1.65)"
       width="50"
       xlink:href="#a-2"
       id="use1099"
       x="0"
       y="0" />
    <use
       height="17.950001"
       transform="translate(10.8,-1.65)"
       width="8.6499996"
       xlink:href="#b-6"
       id="use1101"
       x="0"
       y="0" />
  </g>
  <g
     transform="translate(-14.231675,-22.894115)"
     id="g1471">
    <use
       height="26.85"
       transform="matrix(0.48401719,0,0,0.48401719,16.89105,25.396245)"
       width="26.200001"
       xlink:href="#sprite0"
       id="use1469"
       x="0"
       y="0" />
  </g>
</svg>
